**kern	**kern
*part1	*part1
*staff2	*staff1
*I"Piano	*
*clefG2	*clefG2
*k[]	*k[]
=1	=1
8gL]	4gg)
8BJ	.
4d	8r
.	(8g 8dd
*clefF4	*
=	=
8r	4ff)
8G	.
[4B	8r
.	(8f 8g
=	=
8BL]	4dd)
8GJ	.
[4d	8r
.	(8f 8g
=	=
8dL]	4b)
8GJ	.
[4B	8r
.	(8d 8f
=	=
8BL]	4.g)
8G	.
8B	.
8GJ	8d 8f
=	=
4.A	8r
.	[8c 8f
.	4c_ [4g
8G	.
=	=
4.A	8cL] 8g]
.	[8cJ 8f
.	4c_ [4g
8G	.
=	=
4.B	8cL] 8g]
.	[8dJ [8f
.	4d_ 4f_ [4g
8G	.
=	=
4.B;	8dL] 8f] 8g]
.	[8dJ [8f
.	4d;] 4f] 4g
8G	.
=	=
*-	*-
!!!system-decoration: {(s1,s2)}
